!!!OTL: BLAUER BLAUER FINGERHUT
!!!ARE: Europa, Mitteleuropa, Deutschland, Darmstadt
!!!SCT: K2186
!!!YEM: Copyright 1995, estate of Helmut Schaffrath.
**kern
*ICvox
*Ivox
*M2/4
*k[]
*C:
=1
{8g
8g
8a
8a
=2
8g
8g
4e}
=3
{8g
8g
8a
8a
=4
8g
8g
4e}
=5
{8g
8g
8a
8a
=6
4g
8e}
{8c
=7
8g
8g
8a
8a
=8
4g
4e}
=9
{8g
8g
8a
8a
=10
4g
4e}
=11
{4g
8a
8a
=12
4g
4e}
=13
{8g
8g
8a
8a
=14
8g
8g
4e}
=15
{8g
8g
8a
8a
=16
4g
8e
8r}
==
!!!AGN: Kinder - Lied, Reigen, Tanz - Spiel, Brautwerbung
!!!ONB: ESAC (Essen Associative Code) Database: KINDER
!!!AMT: simple duple
!!!AIN: vox
!!!EED: Helmut Schaffrath
!!!EEV: 1.0
*-
